icons/glyphs/glyph-draw-cube.svg

<?xml version="1.0" encoding="UTF-8" standalone="no"?><svg height="22" viewBox="0 0 5.8208332 5.8208335" width="22" xmlns="http://www.w3.org/2000/svg"><sodipodi:namedview/><metadata><rdf:RDF><cc:Work><dc:format>image/svg+xml</dc:format><dc:type/><dc:title/></cc:Work></rdf:RDF></metadata><path d="m2.6687323.00000002c-.0038 0-.5247696.34414026-1.1577178.76458593l-1.15068728.76458605v1.1870124c0 .6531667.003387 1.1875982.007617 1.1875982.004223 0 .52519261-.3445323 1.15771778-.7657575l1.1501009-.765758v-1.1864265c0-.65238663-.00322-1.18584058-.0070306-1.18584058zm.4927332.0339812c-.00378 0-.00724.52529457-.00703 1.16709218l.0006 1.1665062 1.1495157.769273c.6320814.4229655 1.150645.7698592 1.1524449.7698592.00192.00051.00351-.5257784.00351-1.1694358v-1.1700212l-1.1460098-.76692949c-.6303865-.42161561-1.1492512-.76634372-1.1530308-.76634409zm-.2115061 2.73434738c-.0344166.0014059-2.30470326 1.5332638-2.29141435 1.5461625.00657584.0063264.51642085.3493403 1.13311055.7616566.6166896.4123163 1.1247491.7476655 1.1290091.7446657.1919876-.1244298 2.2805264-1.5375057 2.2826263-1.5444051.0045086-.0149388-2.2280437-1.5080797-2.2533316-1.5080797z" fill="#d0d0d0"/></svg>

<?xml version="1.0" encoding="UTF-8" standalone="no"?>
<!-- Created with Inkscape (http://www.inkscape.org/) -->

<svg
   xmlns:dc="http://purl.org/dc/elements/1.1/"
   xmlns:cc="http://creativecommons.org/ns#"
   xmlns:rdf="http://www.w3.org/1999/02/22-rdf-syntax-ns#"
   xmlns:svg="http://www.w3.org/2000/svg"
   xmlns="http://www.w3.org/2000/svg"
   xmlns:sodipodi="http://sodipodi.sourceforge.net/DTD/sodipodi-0.dtd"
   xmlns:inkscape="http://www.inkscape.org/namespaces/inkscape"
   width="22"
   height="22"
   viewBox="0 0 5.8208332 5.8208335"
   version="1.1"
   id="svg8"
   inkscape:version="0.92+devel 15724 custom"
   sodipodi:docname="glyph-draw-cube.svg">
  <defs
     id="defs2" />
  <sodipodi:namedview
     id="base"
     pagecolor="#002466"
     bordercolor="#ffffff"
     borderopacity="0.37647059"
     inkscape:pageopacity="1"
     inkscape:pageshadow="2"
     inkscape:zoom="18.613637"
     inkscape:cx="11"
     inkscape:cy="11"
     inkscape:document-units="px"
     inkscape:current-layer="svg8"
     inkscape:document-rotation="0"
     showgrid="false"
     inkscape:showpageshadow="false"
     borderlayer="true"
     units="px"
     inkscape:window-width="1920"
     inkscape:window-height="1051"
     inkscape:window-x="0"
     inkscape:window-y="0"
     inkscape:window-maximized="1" />
  <metadata
     id="metadata5">
    <rdf:RDF>
      <cc:Work
         rdf:about="">
        <dc:format>image/svg+xml</dc:format>
        <dc:type
           rdf:resource="http://purl.org/dc/dcmitype/StillImage" />
        <dc:title></dc:title>
      </cc:Work>
    </rdf:RDF>
  </metadata>
  <path
     inkscape:connector-curvature="0"
     style="opacity:1;fill:#d0d0d0;fill-opacity:1;stroke:none;stroke-width:0.29997545"
     d="M 2.6687323,2.000791e-8 C 2.6649323,2.000791e-8 2.1439627,0.34414028 1.5110145,0.76458595 L 0.36032722,1.529172 v 1.1870124 c 0,0.6531667 0.003387,1.1875982 0.007617,1.1875982 0.004223,0 0.52519261,-0.3445323 1.15771778,-0.7657575 L 2.6757629,2.3722671 V 1.1858406 C 2.6757629,0.53345397 2.6725429,2.000791e-8 2.6687323,2.000791e-8 Z M 3.1614655,0.03398122 c -0.00378,0 -0.00724,0.52529457 -0.00703,1.16709218 l 6e-4,1.1665062 1.1495157,0.769273 c 0.6320814,0.4229655 1.150645,0.7698592 1.1524449,0.7698592 0.00192,5.1e-4 0.00351,-0.5257784 0.00351,-1.1694358 V 1.5672548 L 4.3144963,0.80032531 C 3.6841098,0.3787097 3.1652451,0.03398159 3.1614655,0.03398122 Z M 2.9499594,2.7683286 C 2.9155428,2.7697345 0.64525614,4.3015924 0.65854505,4.3144911 0.66512089,4.3208175 1.1749659,4.6638314 1.7916556,5.0761477 2.4083452,5.488464 2.9164047,5.8238132 2.9206647,5.8208134 3.1126523,5.6963836 5.2011911,4.2833077 5.203291,4.2764083 5.2077996,4.2614695 2.9752473,2.7683286 2.9499594,2.7683286 Z"
     id="path6"
     inkscape:label="#" />
</svg>
